X: 38097
T: Spoil The Dance
R: reel
M: 4/4
K: Adorian
A3 G B3 A|GBdB AGEG|A3 G B3 A|GBdB A4:|
ge e2 gede|ge e2 a2 ba|ge e2 gede|gabg a4|
ge e2 gede|ge e2 a2 ga|bgag gede|gedB BAGB|

